src/epub/images/titlepage.svg

<?xml version="1.0" encoding="utf-8"?>
<svg xmlns="http://www.w3.org/2000/svg" xmlns:svg="http://www.w3.org/2000/svg" version="1.1" viewBox="0 0 1400 340">
	<title>The titlepage for the Standard Ebooks edition of When God Laughs, by Jack London</title>
	<g>
		<path d="m 232.58333,130 19.46198,0 21.98831,-77.192984 -19.46199,0 -13.19298,52.959064 -0.46784,0 -14.03509,-52.959064 -13.28655,0 -14.03508,52.959064 -0.46784,0 -13.19298,-52.959064 -19.55556,0 L 188.32601,130 207.88157,130 220.23245,86.678362 232.58333,130 Z"/>
		<path d="m 300.84356,99.029239 24.88889,0 0,30.970761 17.59064,0 0,-77.192984 -17.59064,0 0,30.783626 -24.88889,0 0,-30.783626 -17.59065,0 0,77.192984 17.59065,0 0,-30.970761 z"/>
		<path d="m 403.68858,52.807016 -44.16374,0 0,77.192984 44.16374,0 0,-15.4386 -26.5731,0 0,-15.532161 25.4503,0 0,-15.438597 -25.4503,0 0,-15.345029 26.5731,0 0,-15.438597 z"/>
		<path d="m 436.39181,82.093566 0.18713,0 L 467.269,130 l 17.59064,0 0,-77.192984 -17.59064,0 0,47.906434 -0.18714,0 -30.69005,-47.906434 -17.59065,0 0,77.192984 17.59065,0 0,-47.906434 z"/>
		<path d="m 601.48977,86.771929 -35.64912,0 0,13.567251 17.77777,0 c 0,9.45029 -8.32748,14.87719 -16.74853,14.87719 -10.85381,0 -19.64913,-10.66666 -19.64913,-23.766078 0,-13.380117 8.79532,-24.140352 19.64913,-24.140352 6.8304,0 12.72514,2.713451 17.21637,9.918129 L 595.59503,64.59649 c -6.73684,-8.140351 -16.18713,-13.192983 -29.75438,-13.192983 -21.70761,0 -37.61404,17.871346 -37.61404,40.046785 0,22.081868 16.84211,39.953218 37.61404,39.953218 15.15789,0 31.43859,-8.32749 35.64912,-27.88304 l 0,-16.748541 z"/>
		<path d="m 610.71199,91.356724 c 0,22.549706 16.09357,40.046786 38.92398,40.046786 22.17544,0 38.83041,-17.49708 38.83041,-40.046786 0,-22.549708 -17.40351,-39.953217 -38.83041,-39.953217 -21.23977,0 -38.92398,17.403509 -38.92398,39.953217 z m 18.99415,0 c 0,-11.508772 6.36258,-23.017544 19.92983,-23.017544 13.66082,0 19.83626,11.508772 19.83626,23.017544 0,11.508776 -5.80117,23.017546 -19.83626,23.017546 -14.40936,0 -19.92983,-11.50877 -19.92983,-23.017546 z"/>
		<path d="m 701.22806,52.807016 0,77.192984 22.36257,0 c 21.23977,0 38.92398,-16.09357 38.92398,-38.643276 0,-22.45614 -17.77778,-38.549708 -38.92398,-38.549708 l -22.36257,0 z m 17.59064,61.473684 0,-45.754385 2.71345,0 c 13.09942,0 21.98831,10.011696 21.98831,22.923977 -0.0936,12.912278 -8.98246,22.830408 -21.98831,22.830408 l -2.71345,0 z"/>
		<path d="m 823.48246,52.807016 -17.59065,0 0,77.192984 44.16375,0 0,-15.4386 -26.5731,0 0,-61.754384 z"/>
		<path d="m 904.3728,52.807016 -16.2807,0 L 856.9342,130 l 18.90059,0 5.7076,-15.4386 29.38012,0 5.7076,15.4386 18.90059,0 -31.1579,-77.192984 z m 0.5614,46.31579 -17.40351,0 8.60819,-22.45614 0.18714,0 8.60818,22.45614 z"/>
		<path d="m 1002.7719,52.807016 -17.59062,0 0,44.63158 c 0,12.912284 -3.92982,16.654974 -12.53801,16.654974 -8.60819,0 -12.53801,-3.74269 -12.53801,-16.654974 l 0,-44.63158 -17.59065,0 0,49.777774 c 0,19.08772 10.47954,28.81872 30.12866,28.81872 19.64912,0 30.12863,-9.731 30.12863,-28.81872 l 0,-49.777774 z"/>
		<path d="m 1087.8787,86.771929 -35.6492,0 0,13.567251 17.7778,0 c 0,9.45029 -8.3275,14.87719 -16.7485,14.87719 -10.8538,0 -19.6492,-10.66666 -19.6492,-23.766078 0,-13.380117 8.7954,-24.140352 19.6492,-24.140352 6.8304,0 12.7251,2.713451 17.2163,9.918129 l 11.5088,-12.631579 c -6.7368,-8.140351 -16.1871,-13.192983 -29.7544,-13.192983 -21.7076,0 -37.614,17.871346 -37.614,40.046785 0,22.081868 16.8421,39.953218 37.614,39.953218 15.1579,0 31.4386,-8.32749 35.6492,-27.88304 l 0,-16.748541 z"/>
		<path d="m 1118.1535,99.029239 24.8889,0 0,30.970761 17.5907,0 0,-77.192984 -17.5907,0 0,30.783626 -24.8889,0 0,-30.783626 -17.5906,0 0,77.192984 17.5906,0 0,-30.970761 z"/>
		<path d="m 1203.4517,51.403507 c -12.4444,0 -25.1696,9.169591 -25.1696,23.578948 0,8.046784 5.4269,15.251462 14.6901,19.836258 9.1696,4.584795 17.4035,7.111107 17.4035,12.725147 0,7.20468 -7.2982,7.57895 -11.1345,7.57895 -8.6082,0 -18.9006,-8.70176 -18.9006,-8.70176 l -8.7953,14.78363 c 0,0 10.9474,10.19883 29.0059,10.19883 15.0643,0 29.0994,-6.45614 29.0994,-24.88889 0,-10.105264 -9.4503,-17.40351 -18.0585,-21.052632 -8.7953,-3.742691 -16.0936,-6.83041 -16.0936,-11.134504 0,-4.210526 3.1813,-6.923976 9.1696,-6.923976 7.9532,0 15.6257,5.333333 15.6257,5.333333 l 7.1112,-14.035088 c 0,0 -9.9182,-7.298246 -23.9533,-7.298246 z"/>
	</g>
	<g>
		<path d="m 432.67928,232.10526 -13.19298,0 0,38.17544 c 0,5.82456 -2.8772,8.14035 -6.66667,8.14035 -3.36842,0 -7.50877,-3.92982 -7.50877,-3.92982 l -4.21053,11.01754 c 0,0 5.26316,5.54386 13.54386,5.54386 11.57895,0 18.03509,-6.03509 18.03509,-17.40351 l 0,-41.54386 z"/>
		<path d="m 474.78454,232.10526 -12.21052,0 L 439.2056,290 l 14.17543,0 4.28071,-11.57895 22.03508,0 4.2807,11.57895 14.17544,0 -23.36842,-57.89474 z m 0.42105,34.73685 -13.05263,0 L 468.6091,250 l 0.14035,0 6.45614,16.84211 z"/>
		<path d="m 533.95669,278.07018 c -13.26316,0 -19.08772,-9.26316 -19.08772,-17.05264 0,-7.71929 5.82456,-16.98245 19.08772,-16.98245 6.73684,0 11.36842,3.57895 11.36842,3.57895 l 5.61404,-11.22807 c 0,0 -6.45614,-5.33334 -19.01755,-5.33334 -16.42105,0 -31.36842,13.47369 -31.36842,30.10527 0,16.5614 15.01754,29.89473 31.36842,29.89473 12.56141,0 19.01755,-5.33333 19.01755,-5.33333 l -5.61404,-11.22807 c 0,0 -4.63158,3.57895 -11.36842,3.57895 z"/>
		<path d="m 613.75713,290 -26.94737,-30.45614 23.29824,-27.4386 -16,0 -19.85964,23.64913 0,-23.64913 -13.19299,0 0,57.89474 13.19299,0 0,-24.5614 21.33333,24.5614 18.17544,0 z"/>
		<path d="m 658.6727,232.10526 -13.19298,0 0,57.89474 33.12281,0 0,-11.57895 -19.92983,0 0,-46.31579 z"/>
		<path d="m 687.49396,261.01754 c 0,16.91228 12.07018,30.03509 29.19298,30.03509 16.63158,0 29.12281,-13.12281 29.12281,-30.03509 0,-16.91228 -13.05263,-29.96491 -29.12281,-29.96491 -15.92982,0 -29.19298,13.05263 -29.19298,29.96491 z m 14.24562,0 c 0,-8.63157 4.77193,-17.26315 14.94736,-17.26315 10.24562,0 14.8772,8.63158 14.8772,17.26315 0,8.63158 -4.35088,17.26316 -14.8772,17.26316 -10.80701,0 -14.94736,-8.63158 -14.94736,-17.26316 z"/>
		<path d="m 769.82402,254.07018 0.14035,0 23.01755,35.92982 13.19298,0 0,-57.89474 -13.19298,0 0,35.92983 -0.14035,0 -23.01755,-35.92983 -13.19298,0 0,57.89474 13.19298,0 0,-35.92982 z"/>
		<path d="m 819.608,232.10526 0,57.89474 16.77193,0 c 15.92982,0 29.19298,-12.07018 29.19298,-28.98246 0,-16.8421 -13.33333,-28.91228 -29.19298,-28.91228 l -16.77193,0 z m 13.19298,46.10527 0,-34.31579 2.03509,0 c 9.82456,0 16.49123,7.50877 16.49123,17.19298 -0.0702,9.68421 -6.73684,17.12281 -16.49123,17.12281 l -2.03509,0 z"/>
		<path d="m 873.82071,261.01754 c 0,16.91228 12.07018,30.03509 29.19299,30.03509 16.63157,0 29.1228,-13.12281 29.1228,-30.03509 0,-16.91228 -13.05263,-29.96491 -29.1228,-29.96491 -15.92983,0 -29.19299,13.05263 -29.19299,29.96491 z m 14.24562,0 c 0,-8.63157 4.77193,-17.26315 14.94737,-17.26315 10.24561,0 14.87719,8.63158 14.87719,17.26315 0,8.63158 -4.35088,17.26316 -14.87719,17.26316 -10.80702,0 -14.94737,-8.63158 -14.94737,-17.26316 z"/>
		<path d="m 956.15078,254.07018 0.14035,0 23.01754,35.92982 13.19298,0 0,-57.89474 -13.19298,0 0,35.92983 -0.14035,0 -23.01754,-35.92983 -13.19299,0 0,57.89474 13.19299,0 0,-35.92982 z"/>
	</g>
</svg>

<?xml version="1.0" encoding="utf-8"?>
<svg xmlns="http://www.w3.org/2000/svg" xmlns:svg="http://www.w3.org/2000/svg" version="1.1" viewBox="0 0 1400 340">
	<title>The titlepage for the Standard Ebooks edition of When God Laughs, by Jack London</title>
	<g aria-label="WHEN GOD LAUGHS">
		<path d="m 232.58333,130 h 19.46198 l 21.98831,-77.192984 h -19.46199 l -13.19298,52.959064 h -0.46784 L 226.87572,52.807016 h -13.28655 l -14.03508,52.959064 h -0.46784 L 185.89327,52.807016 H 166.33771 L 188.32601,130 h 19.55556 l 12.35088,-43.321638 z"/>
		<path d="m 300.84356,99.029239 h 24.88889 V 130 h 17.59064 V 52.807016 H 325.73245 V 83.590642 H 300.84356 V 52.807016 H 283.25291 V 130 h 17.59065 z"/>
		<path d="M 403.68858,52.807016 H 359.52484 V 130 h 44.16374 v -15.4386 h -26.5731 V 99.029239 h 25.4503 V 83.590642 h -25.4503 V 68.245613 h 26.5731 z"/>
		<path d="m 436.39181,82.093566 h 0.18713 L 467.269,130 h 17.59064 V 52.807016 H 467.269 v 47.906434 h -0.18714 L 436.39181,52.807016 H 418.80116 V 130 h 17.59065 z"/>
		<path d="m 601.48977,86.771929 h -35.64912 v 13.567251 h 17.77777 c 0,9.45029 -8.32748,14.87719 -16.74853,14.87719 -10.85381,0 -19.64913,-10.66666 -19.64913,-23.766078 0,-13.380117 8.79532,-24.140352 19.64913,-24.140352 6.8304,0 12.72514,2.713451 17.21637,9.918129 L 595.59503,64.59649 c -6.73684,-8.140351 -16.18713,-13.192983 -29.75438,-13.192983 -21.70761,0 -37.61404,17.871346 -37.61404,40.046785 0,22.081868 16.84211,39.953218 37.61404,39.953218 15.15789,0 31.43859,-8.32749 35.64912,-27.88304 z"/>
		<path d="m 610.71199,91.356724 c 0,22.549706 16.09357,40.046786 38.92398,40.046786 22.17544,0 38.83041,-17.49708 38.83041,-40.046786 0,-22.549708 -17.40351,-39.953217 -38.83041,-39.953217 -21.23977,0 -38.92398,17.403509 -38.92398,39.953217 z m 18.99415,0 c 0,-11.508772 6.36258,-23.017544 19.92983,-23.017544 13.66082,0 19.83626,11.508772 19.83626,23.017544 0,11.508776 -5.80117,23.017546 -19.83626,23.017546 -14.40936,0 -19.92983,-11.50877 -19.92983,-23.017546 z"/>
		<path d="M 701.22806,52.807016 V 130 h 22.36257 c 21.23977,0 38.92398,-16.09357 38.92398,-38.643276 0,-22.45614 -17.77778,-38.549708 -38.92398,-38.549708 z M 718.8187,114.2807 V 68.526315 h 2.71345 c 13.09942,0 21.98831,10.011696 21.98831,22.923977 -0.0936,12.912278 -8.98246,22.830408 -21.98831,22.830408 z"/>
		<path d="M 823.48246,52.807016 H 805.89181 V 130 h 44.16375 v -15.4386 h -26.5731 z"/>
		<path d="M 904.3728,52.807016 H 888.0921 L 856.9342,130 h 18.90059 l 5.7076,-15.4386 h 29.38012 L 916.63011,130 h 18.90059 z m 0.5614,46.31579 h -17.40351 l 8.60819,-22.45614 h 0.18714 z"/>
		<path d="m 1002.7719,52.807016 h -17.59062 v 44.63158 c 0,12.912284 -3.92982,16.654974 -12.53801,16.654974 -8.60819,0 -12.53801,-3.74269 -12.53801,-16.654974 v -44.63158 h -17.59065 v 49.777774 c 0,19.08772 10.47954,28.81872 30.12866,28.81872 19.64912,0 30.12863,-9.731 30.12863,-28.81872 z"/>
		<path d="m 1087.8787,86.771929 h -35.6492 v 13.567251 h 17.7778 c 0,9.45029 -8.3275,14.87719 -16.7485,14.87719 -10.8538,0 -19.6492,-10.66666 -19.6492,-23.766078 0,-13.380117 8.7954,-24.140352 19.6492,-24.140352 6.8304,0 12.7251,2.713451 17.2163,9.918129 l 11.5088,-12.631579 c -6.7368,-8.140351 -16.1871,-13.192983 -29.7544,-13.192983 -21.7076,0 -37.614,17.871346 -37.614,40.046785 0,22.081868 16.8421,39.953218 37.614,39.953218 15.1579,0 31.4386,-8.32749 35.6492,-27.88304 z"/>
		<path d="m 1118.1535,99.029239 h 24.8889 V 130 h 17.5907 V 52.807016 h -17.5907 v 30.783626 h -24.8889 V 52.807016 h -17.5906 V 130 h 17.5906 z"/>
		<path d="m 1203.4517,51.403507 c -12.4444,0 -25.1696,9.169591 -25.1696,23.578948 0,8.046784 5.4269,15.251462 14.6901,19.836258 9.1696,4.584795 17.4035,7.111107 17.4035,12.725147 0,7.20468 -7.2982,7.57895 -11.1345,7.57895 -8.6082,0 -18.9006,-8.70176 -18.9006,-8.70176 l -8.7953,14.78363 c 0,0 10.9474,10.19883 29.0059,10.19883 15.0643,0 29.0994,-6.45614 29.0994,-24.88889 0,-10.105264 -9.4503,-17.40351 -18.0585,-21.052632 -8.7953,-3.742691 -16.0936,-6.83041 -16.0936,-11.134504 0,-4.210526 3.1813,-6.923976 9.1696,-6.923976 7.9532,0 15.6257,5.333333 15.6257,5.333333 l 7.1112,-14.035088 c 0,0 -9.9182,-7.298246 -23.9533,-7.298246 z"/>
	</g>
	<g aria-label="JACK LONDON">
		<path d="M 432.67928,232.10526 H 419.4863 v 38.17544 c 0,5.82456 -2.8772,8.14035 -6.66667,8.14035 -3.36842,0 -7.50877,-3.92982 -7.50877,-3.92982 l -4.21053,11.01754 c 0,0 5.26316,5.54386 13.54386,5.54386 11.57895,0 18.03509,-6.03509 18.03509,-17.40351 z"/>
		<path d="M 474.78454,232.10526 H 462.57402 L 439.2056,290 h 14.17543 l 4.28071,-11.57895 h 22.03508 L 483.97752,290 h 14.17544 z m 0.42105,34.73685 H 462.15296 L 468.6091,250 h 0.14035 z"/>
		<path d="m 533.95669,278.07018 c -13.26316,0 -19.08772,-9.26316 -19.08772,-17.05264 0,-7.71929 5.82456,-16.98245 19.08772,-16.98245 6.73684,0 11.36842,3.57895 11.36842,3.57895 l 5.61404,-11.22807 c 0,0 -6.45614,-5.33334 -19.01755,-5.33334 -16.42105,0 -31.36842,13.47369 -31.36842,30.10527 0,16.5614 15.01754,29.89473 31.36842,29.89473 12.56141,0 19.01755,-5.33333 19.01755,-5.33333 l -5.61404,-11.22807 c 0,0 -4.63158,3.57895 -11.36842,3.57895 z"/>
		<path d="m 613.75713,290 -26.94737,-30.45614 23.29824,-27.4386 h -16 l -19.85964,23.64913 V 232.10526 H 561.05537 V 290 h 13.19299 V 265.4386 L 595.58169,290 Z"/>
		<path d="M 658.6727,232.10526 H 645.47972 V 290 h 33.12281 V 278.42105 H 658.6727 Z"/>
		<path d="m 687.49396,261.01754 c 0,16.91228 12.07018,30.03509 29.19298,30.03509 16.63158,0 29.12281,-13.12281 29.12281,-30.03509 0,-16.91228 -13.05263,-29.96491 -29.12281,-29.96491 -15.92982,0 -29.19298,13.05263 -29.19298,29.96491 z m 14.24562,0 c 0,-8.63157 4.77193,-17.26315 14.94736,-17.26315 10.24562,0 14.8772,8.63158 14.8772,17.26315 0,8.63158 -4.35088,17.26316 -14.8772,17.26316 -10.80701,0 -14.94736,-8.63158 -14.94736,-17.26316 z"/>
		<path d="m 769.82402,254.07018 h 0.14035 L 792.98192,290 h 13.19298 v -57.89474 h -13.19298 v 35.92983 h -0.14035 L 769.82402,232.10526 H 756.63104 V 290 h 13.19298 z"/>
		<path d="M 819.608,232.10526 V 290 h 16.77193 c 15.92982,0 29.19298,-12.07018 29.19298,-28.98246 0,-16.8421 -13.33333,-28.91228 -29.19298,-28.91228 z m 13.19298,46.10527 v -34.31579 h 2.03509 c 9.82456,0 16.49123,7.50877 16.49123,17.19298 -0.0702,9.68421 -6.73684,17.12281 -16.49123,17.12281 z"/>
		<path d="m 873.82071,261.01754 c 0,16.91228 12.07018,30.03509 29.19299,30.03509 16.63157,0 29.1228,-13.12281 29.1228,-30.03509 0,-16.91228 -13.05263,-29.96491 -29.1228,-29.96491 -15.92983,0 -29.19299,13.05263 -29.19299,29.96491 z m 14.24562,0 c 0,-8.63157 4.77193,-17.26315 14.94737,-17.26315 10.24561,0 14.87719,8.63158 14.87719,17.26315 0,8.63158 -4.35088,17.26316 -14.87719,17.26316 -10.80702,0 -14.94737,-8.63158 -14.94737,-17.26316 z"/>
		<path d="m 956.15078,254.07018 h 0.14035 L 979.30867,290 h 13.19298 v -57.89474 h -13.19298 v 35.92983 h -0.14035 L 956.15078,232.10526 H 942.95779 V 290 h 13.19299 z"/>
	</g>
</svg>
